co/paypal.svg

<svg viewBox="0 0 24 24" fill="none" xmlns="http://www.w3.org/2000/svg" height="1em" width="1em">
  <path d="M11.3981 21.009H8.87406C8.74581 21.0163 8.62215 20.9602 8.54306 20.859C8.46289 20.7563 8.43017 20.6243 8.45306 20.496C8.49306 20.255 8.54306 19.937 8.60606 19.533C8.64106 19.311 8.67906 19.07 8.72006 18.806C8.84506 18.006 8.93006 17.469 8.98706 17.118C9.00972 16.9774 9.03672 16.8107 9.06806 16.618V16.598C9.11939 16.2787 9.18206 15.8907 9.25606 15.434L9.35606 14.815V14.81C9.42806 14.3654 9.48472 14.0117 9.52606 13.749C9.53065 13.641 9.57987 13.5398 9.66195 13.4694C9.74404 13.3991 9.85163 13.366 9.95906 13.378H11.4791C12.2083 13.3859 12.9362 13.3148 13.6501 13.166C14.7249 12.9515 15.722 12.4509 16.5361 11.717C17.2494 11.0318 17.7848 10.1829 18.0961 9.24402C18.248 8.80785 18.3657 8.36049 18.4481 7.90602C18.4551 7.86402 18.4631 7.84002 18.4731 7.83202C18.479 7.82431 18.4883 7.81986 18.4981 7.82002H18.5081C18.53 7.82924 18.5508 7.84098 18.5701 7.85502C19.0947 8.25248 19.4458 8.8371 19.5501 9.48702C19.6684 10.1669 19.6548 10.8632 19.5101 11.538C19.3207 12.8439 18.6602 14.0354 17.6531 14.888C16.5405 15.681 15.1925 16.0743 13.8281 16.004H13.3891C13.2256 16.0027 13.0675 16.0618 12.9451 16.17C12.8181 16.2802 12.7336 16.4312 12.7061 16.597L12.6651 16.791L12.1121 20.269L12.0911 20.42C12.0625 20.5876 11.9744 20.7392 11.8431 20.847C11.7194 20.9534 11.5612 21.011 11.3981 21.009ZM7.82006 19.009H4.85506C4.71357 19.012 4.57818 18.9515 4.48606 18.844C4.39004 18.7385 4.34766 18.5948 4.37106 18.454L6.70206 3.66402C6.73137 3.47427 6.83008 3.30215 6.97906 3.18102C7.12295 3.05694 7.30706 2.98941 7.49706 2.99099H13.5111C13.8408 3.00401 14.1685 3.04787 14.4901 3.12202C14.8733 3.19455 15.2492 3.30165 15.6131 3.44202C16.2754 3.67622 16.8497 4.10842 17.2581 4.68002C17.6453 5.26349 17.8436 5.95198 17.8261 6.65202C17.8091 7.46388 17.6532 8.26683 17.3651 9.02602C16.9057 10.5007 15.7792 11.6732 14.3241 12.191C13.5073 12.4676 12.6514 12.6111 11.7891 12.616C11.7791 12.622 11.3491 12.623 10.8891 12.623L9.98906 12.616C9.39537 12.5554 8.86455 12.9865 8.80206 13.58C8.78906 13.634 8.48506 15.527 7.94706 18.909C7.94708 18.9411 7.93272 18.9715 7.90792 18.9918C7.88312 19.0122 7.85051 19.0203 7.81906 19.014L7.82006 19.009Z" fill="black"/>
</svg>

<svg viewBox="0 0 24 24" fill="none" xmlns="http://www.w3.org/2000/svg" height="1em" width="1em">
  <path d="M11.398 21.009H8.874a.392.392 0 0 1-.33-.15.459.459 0 0 1-.09-.363c.04-.241.09-.559.152-.963l.114-.727a313.336 313.336 0 0 1 .348-2.188v-.02l.188-1.164.1-.619v-.005c.072-.445.129-.798.17-1.061a.39.39 0 0 1 .433-.371h1.52a10.08 10.08 0 0 0 2.171-.212 6.09 6.09 0 0 0 2.886-1.449 6.084 6.084 0 0 0 1.56-2.473c.152-.436.27-.884.352-1.338.007-.042.015-.066.025-.074a.03.03 0 0 1 .025-.012h.01a.31.31 0 0 1 .062.035c.525.397.876.982.98 1.632.118.68.105 1.376-.04 2.051a5.406 5.406 0 0 1-1.857 3.35 6.053 6.053 0 0 1-3.825 1.116h-.439a.662.662 0 0 0-.444.166.722.722 0 0 0-.239.427l-.04.194-.554 3.478-.02.151a.706.706 0 0 1-.249.427.67.67 0 0 1-.445.162Zm-3.578-2H4.855a.473.473 0 0 1-.369-.165.466.466 0 0 1-.115-.39l2.331-14.79a.775.775 0 0 1 .277-.483.783.783 0 0 1 .518-.19h6.014c.33.013.658.057.98.131.382.073.758.18 1.122.32a3.425 3.425 0 0 1 1.645 1.238 3.41 3.41 0 0 1 .568 1.972 7.11 7.11 0 0 1-.46 2.374 4.909 4.909 0 0 1-3.042 3.165 8.046 8.046 0 0 1-2.535.425c-.01.006-.44.007-.9.007l-.9-.007a1.083 1.083 0 0 0-1.187.964c-.013.054-.317 1.947-.855 5.329a.107.107 0 0 1-.128.105l.001-.005Z" fill="#000"/>
</svg>
